!!!COM: Anonymous
!!!CDT: [?]
!!!OTL@@LAT: Ave stella matutina
!!!OTL@POL: Zawitaj rana jutrzenka
!!!TXO: Polish/Latin
!!!ODT: 
!!!GTL: Hymnbook E
!!!ARL: Opactwo św. Wojciecha, Staniątki 
!!!voices:	3
**kern	**kern	**text	**kern	**text
*staff3	*staff2	*staff2	*staff1	*staff1
*I"Basso	*I"Canto II	*	*I"Canto I	*
=1-	=1-	=1-	=1-	=1-
*clefF4	*clefG2	*	*clefG2	*
*k[]	*k[]	*	*k[]	*
*met(c|)	*met(c|)	*	*met(c|)	*
*M2/2	*M2/2	*	*M2/2	*
2r	2r	.	2r	.
2A\	2a/	A-	2a/	A-
=2	=2	=2	=2	=2
2F\	2a/	-ve	2cc\	-ve
2D\	2b\	stel-	2dd\	stel-
=3	=3	=3	=3	=3
1E	1g#	-la	1b	-la
=4	=4	=4	=4	=4
2F\	2a/	ma-	2cc\	ma-
2C/	[2cc\	-tu-	2ee\	-tu-
=5	=5	=5	=5	=5
1G	2cc\]	.	1dd	-ti-
.	2b\	-ti-	.	.
=6	=6	=6	=6	=6
1C	1cc	-na	1cc	-na
=7	=7	=7	=7	=7
!!linebreak:original
1c	1cc	Pec-	1ee	Pec-
=8	=8	=8	=8	=8
2A\	2cc\	-ca-	2ee\	-ca-
[2A\	[2cc\	-to-	[2ee\	-to-
=9	=9	=9	=9	=9
2A\]	2cc\]	.	2ee\]	.
[2D\	[2dd\	-rum	[2ff\	-rum
=10	=10	=10	=10	=10
2D\]	2dd\]	.	2ff\]	.
[2C/	[2cc\	me-	[2ee\	me-
=11	=11	=11	=11	=11
2C/]	2cc\]	.	2ee\]	.
2F\	4b\	-di-	2dd\	-di-
.	4a/	.	.	.
=12	=12	=12	=12	=12
1G	1b	-ci-	1dd	-ci-
=13	=13	=13	=13	=13
1C	1cc	-na	1cc	-na
=14	=14	=14	=14	=14
!!linebreak:original
1c	1cc	Mun-	1ee	Mun-
=15	=15	=15	=15	=15
2G\	2b\	-di	2dd\	-di
[2A\	[2a/	es	[2cc\	es
=16	=16	=16	=16	=16
2A\]	2a/]	.	2cc\]	.
2D\	2b\	prin-	2dd\	prin-
=17	=17	=17	=17	=17
1E	1g#	-ceps	1b	-ceps
=18	=18	=18	=18	=18
1C	1cc	prin-	1ee	prin-
=19	=19	=19	=19	=19
2G\	2b\	-ceps	2dd\	-ceps
[2A\	[2a/	Re-	[2cc\	Re-
=20	=20	=20	=20	=20
2A\]	2a/]	.	2cc\]	.
2D\	2a/	-gi-	2dd\	-gi-
=21	=21	=21	=21	=21
1E	1g#	-na	1b	-na
=22	=22	=22	=22	=22
!!linebreak:original
2G\	2b\	An-	2dd\	An-
2A\	2a/	-ge-	2cc\	-ge-
=23	=23	=23	=23	=23
2G\	2b\	-lo-	2dd\	-lo-
[2C/	[2cc\	-rum-	[2ee\	-rum-
=24	=24	=24	=24	=24
2C/]	2cc\]	.	2ee\]	.
2F\	2a/	-que	2cc\	-que
=25	=25	=25	=25	=25
2D\	1a	Do-	2dd\	Do-
[2E\	.	.	[2b\	-mi-
=26	=26	=26	=26	=26
2E\]	2g#/	-mi-	2b\]	.
[2AA/	[2a/	-na.	[2a/	-na.
=27	=27	=27	=27	=27
2AA/]	2a/]	.	2a/]	.
2r	2r	.	2r	.
==	==	==	==	==
*-	*-	*-	*-	*-
!!!GTL: Hymnbook E
!!!EFL: 24/117
!!!YEM: Creative Commons CC/BY/NC/SA 4.0
!!!ENC: Marcin Konik
!!!END: 
!!!EED: Marcin Konik
!!!EEV: 
!!!ONB: Translated from MusicXML and edited by Marcin Konik
!!!CharacterEncoding: utf-8
!!!RDF**kern: l=long note in original notation
!!!RDF**kern: i=editorial accidental
!!muse2ps: z14jc180F
